X: 23444
T: Let It Be So
R: jig
M: 6/8
K: Dmajor
B|A/B/cA- AFE|~F3 FED|A/B/cA- AFA|DFA dcB|
A/B/cA- AFE|FGF FEF|DED FEF|DFA d2:|
|:B|A/B/cd e2d|e/f/ed cBA|A/B/cd e2f|gfe d2A|
def gfe|ded dcB|A/B/cA- AFA|DFA d2:|

